archdroid-icon-theme/Archdroid-Shamrock/apps/scalable/clock.svg

<?xml version="1.0" encoding="UTF-8" standalone="no"?>
<svg
   xmlns:dc="http://purl.org/dc/elements/1.1/"
   xmlns:cc="http://creativecommons.org/ns#"
   xmlns:rdf="http://www.w3.org/1999/02/22-rdf-syntax-ns#"
   xmlns:svg="http://www.w3.org/2000/svg"
   xmlns="http://www.w3.org/2000/svg"
   xmlns:sodipodi="http://sodipodi.sourceforge.net/DTD/sodipodi-0.dtd"
   xmlns:inkscape="http://www.inkscape.org/namespaces/inkscape"
   width="48"
   height="48"
   viewBox="0 0 48 48"
   id="svg2"
   version="1.1"
   inkscape:version="0.91 r13725"
   sodipodi:docname="clock.svg"
   style="fill:#00E676">
  <metadata
     id="metadata10">
    <rdf:RDF>
      <cc:Work
         rdf:about="">
        <dc:format>image/svg+xml</dc:format>
        <dc:type
           rdf:resource="http://purl.org/dc/dcmitype/StillImage" />
        <dc:title></dc:title>
      </cc:Work>
    </rdf:RDF>
  </metadata>
  <defs
     id="defs8" />
  <sodipodi:namedview
     pagecolor="#ffffff"
     bordercolor="#666666"
     borderopacity="1"
     objecttolerance="10"
     gridtolerance="10"
     guidetolerance="10"
     inkscape:pageopacity="0"
     inkscape:pageshadow="2"
     inkscape:window-width="668"
     inkscape:window-height="480"
     id="namedview6"
     showgrid="false"
     fit-margin-top="0"
     fit-margin-left="0"
     fit-margin-right="0"
     fit-margin-bottom="0"
     inkscape:zoom="3.869620983900424"
     inkscape:cx="-27.95191744696262"
     inkscape:cy="7.07967658995339"
     inkscape:window-x="0"
     inkscape:window-y="30"
     inkscape:window-maximized="0"
     inkscape:current-layer="svg2" />
  <path
     d="M 23.98999999999999,4.000000000000004 C 12.93999999999999,4.000000000000004 3.999999999999996,12.95 3.999999999999996,24 c 0,11.05 8.939999999999994,20 19.989999999999994,20 C 35.04,44 44,35.05 44,24 44,12.95 35.04,4 23.98999999999999,4 Z M 23.99999999999999,40 c -8.84,0 -15.999999999999952,-7.15999999999999 -15.999999999999952,-16 C 8.000000000000007,15.16 15.16,8 23.99999999999999,8 32.84000000000002,8 40,15.16 40,24 40,32.84000000000001 32.84000000000002,40 23.99999999999999,40 Z m 1,-26 -3,0 0,12 10.49000000000002,6.3 1.51000000000001,-2.46000000000001 L 25,24.49999999999999 Z"
     id="path4"
     inkscape:connector-curvature="0"
     style="fill-opacity:0.9" />
</svg>

<svg xmlns="http://www.w3.org/2000/svg" viewBox="0 0 48 48" fill="#00E676"><path d="m23.99 4c-11.05 0-19.99 8.95-19.99 20 0 11.05 8.94 20 19.99 20 11.05 0 20.01-8.95 20.01-20 0-11.05-8.96-20-20.01-20m.01 36c-8.84 0-16-7.16-16-16 0-8.84 7.16-16 16-16 8.84 0 16 7.16 16 16 0 8.84-7.16 16-16 16m1-26h-3v12l10.49 6.3 1.51-2.46-9-5.34" fill-opacity=".9"/></svg>
